X: 41957
T: Walking The Floor
R: jig
M: 6/8
K: Amixolydian
e|A>AA e2A|e>fg e>dB|G>GG d2B|G>ge d>BG|
A>AA e2A|e>fg e>dB|G>GG e>dB|B>AA A2:|
B|a3 e2d|g>ee e>dB|g3 d2B|G>ge d>BG|
a3 e2d|g>ee e>dB|G>GG e>dB|B>AA A2:|

